svg/l/MW.svg

<svg width="32" height="24" viewBox="0 0 32 24" fill="none" xmlns="http://www.w3.org/2000/svg">
<g clip-path="url(#clip0_270_67424)">
<rect width="32" height="24" fill="white"/>
<path fill-rule="evenodd" clip-rule="evenodd" d="M0 0V24H32V0H0Z" fill="#E11C1B"/>
<mask id="mask0_270_67424" style="mask-type:luminance" maskUnits="userSpaceOnUse" x="0" y="0" width="32" height="24">
<path fill-rule="evenodd" clip-rule="evenodd" d="M0 0V24H32V0H0Z" fill="white"/>
</mask>
<g mask="url(#mask0_270_67424)">
<path fill-rule="evenodd" clip-rule="evenodd" d="M0 0V10H32V0H0Z" fill="#272727"/>
<path fill-rule="evenodd" clip-rule="evenodd" d="M0 16V24H32V16H0Z" fill="#5EAA22"/>
<path fill-rule="evenodd" clip-rule="evenodd" d="M4.00167 11.9459V11.9435L3.99231 11.9451L4.00167 11.9459ZM4.63012 8.12681H4.73311L4.57526 8.10264L4.63012 8.12681ZM7.55764 8.12681C7.61 8.02617 7.66466 7.92662 7.72157 7.8282L5.43213 6.31269L8.13251 7.19113C8.28353 6.97994 8.44545 6.77518 8.61759 6.57744L6.63318 4.68812L9.16201 6.00774C9.34753 5.83061 9.54197 5.66058 9.74472 5.49818L8.13983 3.28113L10.4064 5.01503C10.6172 4.87487 10.8351 4.74227 11.0596 4.6177L9.90363 2.13696L11.8183 4.23867C12.0465 4.13665 12.2801 4.04247 12.5187 3.95654L11.8679 1.29236L13.3505 3.69631C13.5891 3.63253 13.8319 3.57673 14.0783 3.5293L13.9695 0.774497L14.9557 3.3979C15.1992 3.37165 15.4455 3.35345 15.6945 3.34362L16.1409 0.600006L16.5875 3.34442C16.8362 3.35469 17.0823 3.37331 17.3254 3.39996L18.3123 0.774497L18.2034 3.53309C18.449 3.58083 18.6908 3.63687 18.9286 3.70085L20.414 1.29236L19.7615 3.96308C19.9988 4.04901 20.231 4.1431 20.4579 4.24494L22.3782 2.13696L21.2182 4.62641C21.4409 4.75053 21.6571 4.88257 21.8663 5.02205L24.142 3.28113L22.5299 5.50819C22.7307 5.6696 22.9233 5.8385 23.1071 6.0144L25.6487 4.68812L23.6535 6.58771C23.8237 6.78389 23.9839 6.98696 24.1334 7.19633L26.8497 6.31269L24.546 7.83765C24.601 7.93298 24.6538 8.02939 24.7045 8.12681H22.7396C21.3855 6.24981 18.9106 4.99318 16.0818 4.99318C13.2531 4.99318 10.7782 6.24981 9.42409 8.12681H7.55764ZM10.5597 8.12681C11.8426 6.80363 13.857 5.95106 16.122 5.95106C18.3871 5.95106 20.4015 6.80363 21.6844 8.12681H10.5597ZM27.5488 8.12681H27.6517L27.7066 8.10264L27.5488 8.12681ZM28.2816 11.9437L28.2896 11.9451L28.2816 11.9458V11.9437Z" fill="#E11C1B"/>
</g>
</g>
<defs>
<clipPath id="clip0_270_67424">
<rect width="32" height="24" fill="white"/>
</clipPath>
</defs>
</svg>

<svg width="32" height="24" fill="none" xmlns="http://www.w3.org/2000/svg">
  <mask id="a" maskUnits="userSpaceOnUse" x="0" y="0" width="32" height="24">
    <path fill="#fff" d="M0 0h32v24H0z"/>
  </mask>
  <g mask="url(#a)">
    <path fill-rule="evenodd" clip-rule="evenodd" d="M0 0v24h32V0H0z" fill="#E11C1B"/>
    <mask id="b" maskUnits="userSpaceOnUse" x="0" y="0" width="32" height="24">
      <path fill-rule="evenodd" clip-rule="evenodd" d="M0 0v24h32V0H0z" fill="#fff"/>
    </mask>
    <g mask="url(#b)" fill-rule="evenodd" clip-rule="evenodd">
      <path d="M0 0v10h32V0H0z" fill="#272727"/>
      <path d="M0 16v8h32v-8H0z" fill="#5EAA22"/>
      <path d="M4.002 11.946v-.002l-.01.001h.01zm.628-3.82h.103l-.158-.023.055.024zm2.928 0c.052-.1.107-.2.164-.298l-2.29-1.515 2.7.878c.152-.211.313-.416.486-.614L6.633 4.688l2.529 1.32c.186-.177.38-.347.583-.51L8.14 3.281l2.266 1.734c.211-.14.43-.273.654-.397L9.904 2.137l1.914 2.102c.229-.102.462-.197.7-.282l-.65-2.665 1.482 2.404c.24-.063.482-.12.728-.167L13.97.774l.986 2.624c.243-.026.49-.045.739-.054L16.14.6l.447 2.744c.248.01.494.03.737.056l.987-2.626-.109 2.76c.246.047.488.103.726.167l1.485-2.409-.652 2.671c.237.086.469.18.696.282l1.92-2.108-1.16 2.49c.223.124.44.256.648.395l2.276-1.74-1.612 2.226c.2.162.393.33.577.506l2.542-1.326-1.995 1.9c.17.196.33.399.48.608l2.716-.883-2.304 1.525c.055.095.108.191.159.289H22.74c-1.354-1.877-3.83-3.134-6.658-3.134-2.829 0-5.304 1.257-6.658 3.134H7.558zm3.002 0c1.283-1.322 3.297-2.175 5.562-2.175s4.28.853 5.562 2.176H10.56zm16.989 0h.103l.055-.023-.158.024zm.733 3.818l.008.001h-.008v-.001z" fill="#E11C1B"/>
    </g>
  </g>
</svg>
